svgs/sharp-regular/cabinet-filing.svg

<svg xmlns="http://www.w3.org/2000/svg" viewBox="0 0 448 512"><!--! Font Awesome Pro 6.6.0 by @fontawesome - https://fontawesome.com License - https://fontawesome.com/license (Commercial License) Copyright 2024 Fonticons, Inc. --><path d="M400 232l0-184L48 48l0 184 352 0zM0 464L0 280l0-24 0-24L0 48 0 0 48 0 400 0l48 0 0 48 0 184 0 24 0 24 0 184 0 48-48 0L48 512 0 512l0-48zM48 280l0 184 352 0 0-184L48 280zM136 96l176 0 24 0 0 24 0 32 0 24-48 0 0-24 0-8-128 0 0 8 0 24-48 0 0-24 0-32 0-24 24 0zm0 240l176 0 24 0 0 24 0 32 0 24-48 0 0-24 0-8-128 0 0 8 0 24-48 0 0-24 0-32 0-24 24 0z"/></svg>

<svg xmlns="http://www.w3.org/2000/svg" viewBox="0 0 448 512"><!--! Font Awesome Pro 6.4.0 by @fontawesome - https://fontawesome.com License - https://fontawesome.com/license (Commercial License) Copyright 2023 Fonticons, Inc. --><path d="M400 232V48H48V232H400zM0 464V280 256 232 48 0H48 400h48V48 232v24 24V464v48H400 48 0V464zM48 280V464H400V280H48zM136 96H312h24v24 32 24H288V152v-8H160v8 24H112V152 120 96h24zm0 240H312h24v24 32 24H288V392v-8H160v8 24H112V392 360 336h24z"/></svg>
